X: 26
T:Gwers Dafydd
T:David's Lesson
M:6/8
L:1/8
Q:130
S:Cadw Twmpath Collection
R:Jig
A:Wales
Z:brian_martin12345@yahoo.com
K:G
d3B3|dcB Bcd|e3c3|edc cde|
g3d3|gfe def|gGA BdB|(G3g3):||
e2ce2c|d2Bd2B|c2Ac2A|B2GB2G|
e2ce2c|d2Bd2B|c2Ac2A|1A3GBd:||2(G3g3)||
